!!!OTL: ES LIEGT EIN SCHLOSS IN OESTERREICH
!!!ARE: Europa, Mitteleuropa, Deutschland, Sueddeutschland
!!!SCT: E0061A
!!!YEM: Copyright 1995, estate of Helmut Schaffrath.
**kern
*ICvox
*Ivox
!! Mixed meters:  3/4; 4/4
*M3/4
*k[b-]
*F:
=1
{4f
4f
4g
=2
2a
4b-
=3
2cc
4a
=4
2f
4r}
=5
{4f
4a
4b-
=6
2cc
4f
=7
2f
8e
8d
=8
4e
4f
4d
=9
2c
4r}
=10
{4cc
4cc
4cc
=11
4.dd
8cc
4dd
=12
2cc
4b-
=13
2a}
{4dd
=14
*M4/4
4cc
4g
4a
4f
=15
4e
4f}
{4g
4a
=16
4a
8g
8f
2g
=17
1f}
==
!!!AGN: erzaehlendes Volks - Lied, Sage, Mord, Ballade ?
!!!ONB: ESAC (Essen Associative Code) Database: ERK1
!!!AMT: irregular
!!!AIN: vox
!!!EED: Helmut Schaffrath
!!!EEV: 1.0
*-
